X:1
T:Title
%%score { ( 1 3 ) | ( 2 4 ) }
L:1/8
M:4/4
K:G
V:1 treble nm="Grand Piano"
V:3 treble 
V:2 treble 
V:4 treble 
V:1
 z8[Q:1/4=100] | [DGB]2 [DGB]2 [DGB]2 [DGB]2 | [CEB]4[K:bass] z4[K:treble] | %3
 [DF]2 [FA]2 [Ac]2 [ce]2 | [Bd]6 z2 | [DGB]2 [DGB]2 [DGB]2 [D=FB]2 | [FB]4[K:bass] z4 | %7
 [DFd]2 [F,A,DF]2 [^CGB]2 A2 | D6 DD | c2 B2 A2 ^G2 | B3 A D2 DD | A2 G2 F2 [EG]2 | [Fd]6 [DG]A | %13
 B2 c2 d2 ^d2 | [Ee]4 [CEG]2 [G,^DG][DA] | B2 G2 E2 ^C2 |[M:5/4] D4 [Fd]6 |[M:4/4] [Gd]4 e4 | %18
 d4 [FA]4 | [CFA]2 [=FB]2 [^Fd]3 [Fc] | [GB]2 [_Be]2 [=Bd]4 | [Gd]4 [GB]4 | [Gd]4 [Gc]4 | %23
 [DGB]DEF GABc |[M:7/8] [GB]2 [CFA]2 [B,G]3 |] %25
V:2
 z4 z2 GA | G,,2 B,,2 D,2 G,,2 | C,,2 z A C,2 CE | D,,2 [D,F,C]2 [D,F,C]2 [D,F,C]2 | %4
 G,,2 D,2 D,2[K:treble] GA | G,,2 B,,2 D,2 ^G,,2 | A,,2 z[K:treble] A D,2 FA | %7
 A,,2 D,2 A,,2 [E,G,^C]2 | .[D,F,]2 .A,,2 .D,,2 D,D, | [D,A,D]2 [D,G,D]2 [D,F,D]2 [D,=F,D]2 | %10
 [D,F,D]4 [D,F,]2 D,D, | [D,CD]2 [D,B,D]2 [D,A,D]2 [D,_B,]2 | [D,A,]6 [B,,G,][D,F,D] | %13
 [G,D]2 [G,A,D]2 [G,B,G]2 [G,B,=F]2 | z2 z c C,2 C,[C,G,] | [D,G,D]2 G,2 E,2 ^C,2 | %16
[M:5/4] D,4 [D,C]6 |[M:4/4] z4[K:treble] .[G,B,]2 z2 | F4[K:bass] z4 | D,2 [D,^G,]2 [D,A,]3 [D,D] | %20
 [G,D]2 [G,^C]2 [G,D]4 | [G,B,]2 G,2 =F,F, F,2 | [E,C]2 E,2 ^D,D, D,2 | D,D,E,F, G,A,B,C | %24
[M:7/8] D2 D,2 G,3 |] %25
V:3
 x8 | x8 | z2[K:bass] [E,A,]2 [E,A,CE]2[K:treble] EG | x8 | z2 [G,B,]2 [G,B,]2 z2 | x8 | %6
 z2[K:bass] [F,A,]2 [F,A,DF]2 z2 | x8 | x8 | x8 | x8 | x8 | x8 | x8 | x8 | x8 |[M:5/4] x10 | %17
[M:4/4] z2 B,2 z B, B,2 | z2 C2 CCC[B,=F^G] | x8 | x8 | z2 B,2 DD D2 | z2 C2 CC C2 | x8 | %24
[M:7/8] x7 |] %25
V:4
 x8 | x8 | z2 C,2 z4 | x8 | x6[K:treble] x2 | x8 | z2 D,2[K:treble] z4 | x8 | x8 | x8 | x8 | x8 | %12
 x8 | x8 | [C,C]4 z4 | x8 |[M:5/4] x10 |[M:4/4] [G,B,]2 D,2[K:treble] G-[G,G-] [D,G]2 | %18
 [A,C]2[K:bass] D,2 A,A,D,D, | x8 | x8 | x8 | x8 | x8 |[M:7/8] x7 |] %25

